X: 12
T: Over the Moor to Maggie 
M: 4/4
L: 1/8
R: Reel
K: G
D2|G2GA BABd|efge dBAG|EAAG ABAG|EAAG AcBA|
GFGA BABd|efge dBAG|EG (3GFG BG (3GFG|EGFA G2 :| 
ga|bg (3gfg agef|gage d2 (3Bcd|eaag abag|eaag a2 ga|
bg (3gfg agef|gage d2 (3Bcd|eg (3gfg bgag|egfa g2 :|
Bd|e2ec d2dB|c2cA B2AG|EAAG ABAG|EAAG A2 (3Bcd|
e2ec d2dB|c2cA B2AG|EG (3GFG BGAG|EGFA G2 :|
